bag-personal-plus.svg

<svg fill="currentColor" viewBox="0 0 24 24"><path d="M22 19h-3v3h-2v-3h-3v-2h3v-3h2v3h3zM8 2c-1.1 0-2 .9-2 2v1C3.8 5 2 6.8 2 9v11c0 1.1.9 2 2 2h9.5c-1-1.1-1.5-2.5-1.5-4 0-.7.1-1.4.3-2H7v2H6v-2H4v-1h8.8c1-1.8 3-3 5.2-3V9c0-2.2-1.8-4-4-4V4c0-1.1-.9-2-2-2zm0 2h4v1H8zm2 5 2 2-2 2-2-2z"/></svg>

<svg  viewBox="0 0 24 24" fill="currentColor"><path  d="M22 19H19V22H17V19H14V17H17V14H19V17H22V19M8 2C6.9 2 6 2.9 6 4V5C3.8 5 2 6.8 2 9V20C2 21.1 2.9 22 4 22H13.5C12.5 20.9 12 19.5 12 18C12 17.3 12.1 16.6 12.3 16H7V18H6V16H4V15H12.8C13.8 13.2 15.8 12 18 12V9C18 6.8 16.2 5 14 5V4C14 2.9 13.1 2 12 2H8M8 4H12V5H8V4M10 9L12 11L10 13L8 11L10 9Z"/></svg>
